packages/components/src/components/icon/common/statement.svg

<svg width="48" height="48" viewBox="0 0 48 48" fill="none" xmlns="http://www.w3.org/2000/svg">
<rect width="48" height="48" rx="24" fill="#F2F3F4"/>
<path d="M33 36H15C13.3425 36 12 34.6575 12 33V17.25H36V33C36 34.6575 34.6575 36 33 36Z" fill="#85ACB0"/>
<path d="M16.5 25.5C16.9142 25.5 17.25 25.1642 17.25 24.75C17.25 24.3358 16.9142 24 16.5 24C16.0858 24 15.75 24.3358 15.75 24.75C15.75 25.1642 16.0858 25.5 16.5 25.5Z" fill="white"/>
<path d="M31.5 24H19.5C19.0858 24 18.75 24.3358 18.75 24.75C18.75 25.1642 19.0858 25.5 19.5 25.5H31.5C31.9142 25.5 32.25 25.1642 32.25 24.75C32.25 24.3358 31.9142 24 31.5 24Z" fill="white"/>
<path d="M16.5 30C16.9142 30 17.25 29.6642 17.25 29.25C17.25 28.8358 16.9142 28.5 16.5 28.5C16.0858 28.5 15.75 28.8358 15.75 29.25C15.75 29.6642 16.0858 30 16.5 30Z" fill="white"/>
<path d="M31.5 28.5H19.5C19.0858 28.5 18.75 28.8358 18.75 29.25C18.75 29.6642 19.0858 30 19.5 30H31.5C31.9142 30 32.25 29.6642 32.25 29.25C32.25 28.8358 31.9142 28.5 31.5 28.5Z" fill="white"/>
<g style="mix-blend-mode:multiply">
<path d="M12 15C12 13.3425 13.3425 12 15 12H33C34.6575 12 36 13.3425 36 15V18.75H12V15Z" fill="#FF444F"/>
</g>
</svg>

<svg width="48" height="48" fill="none" xmlns="http://www.w3.org/2000/svg"><rect width="48" height="48" rx="24" fill="#F2F3F4"/><path d="M33 36H15a3 3 0 0 1-3-3V17.25h24V33a3 3 0 0 1-3 3Z" fill="#85ACB0"/><path d="M16.5 25.5a.75.75 0 1 0 0-1.5.75.75 0 0 0 0 1.5ZM31.5 24h-12a.75.75 0 0 0 0 1.5h12a.75.75 0 0 0 0-1.5ZM16.5 30a.75.75 0 1 0 0-1.5.75.75 0 0 0 0 1.5ZM31.5 28.5h-12a.75.75 0 0 0 0 1.5h12a.75.75 0 0 0 0-1.5Z" fill="#fff"/><path d="M12 15a3 3 0 0 1 3-3h18a3 3 0 0 1 3 3v3.75H12V15Z" fill="#FF444F" style="mix-blend-mode:multiply"/></svg>
